X: 488
T: Bülbül Gibi Pür Oldu Cihân
C: Zekâî Dede
O: Turkey
F: http://compmusic.upf.edu/node/140
N: hicazkar--beste--yuruksemai--bulbul_gibi--zekai_dede
N: makam= hicazkar
N: form= beste
N: usul= yuruksemai = 6/8
M: 6/8
L: 1/16
K: C _1/4B _7/8e _7/8A ^f
Q: 1/4=84
%%MIDI tuningsystem comma53
z16 f6g2  | g6=a2 _b2a2g2f2 g8  | z4f4 g4=a4 _b6a2  | \
w:  Bül  |  bül  *  gi *  bi  *  pür   |  ol du  ci hân   | 
=a6g2 f4g4 f2e2e2d2  | 
w:  nağ *  me le rin  | 
d8 e8 f6e2  | d4e4 f4g4 f2e4d2  | =a6g2 f4g4 f2e2e2d2  | \
w:  den   |   |  nağ *  me le rin  | 
d8 z8 c6g2  | 
w:  den   Gel   | 
g6=f2 f2e2e2d2 d8  | d2e2=f2d2 e2c2d4 d6f2  | \
w:  ser *  vi  *  re *  vân   |  SAZ *  *  *  *  *  *  gel   | 
=f2e4d2 d2c2c2B2 B8  | 
w:  gon *  *  ca  *  de *  hen   | 
B2c2d2e2 d2c2B4 c6e2  | d2c4B2 B2A2A2G2 G8  | \
w:  SAZ *  *  *  *  *  *  gel   |  ka *  *  şı  *  ke *  man    | 
B2c2d8c2d2 e6d2  | 
w:  Ke *  man  ke *  man   | 
g4f2e2 d2c2B2c2 B2A2A2G2  | G8 z8 f6g2  | \
w:  ke man  *  *  *  a *  man   |  gel   Hiç   | 
g6=a2 _b2a2g2f2 g8  | 
w:  bûy_ *  i  *  ve *  fâ   | 
z4f4 g4=a4 _b6a2  | =a6g2 f4g4 f2e2e2d2  | \
w:  gör me dim  ol   |  verd_ *  i  te rim  | 
d8 e8 f6e2  | d4e4 f4g4 f2e4d2  | 
w:  den   |   | 
=a6g2 f4g4 f2e2e2d2  | d8 z8 c6g2  | \
w:  ver *  di  te rim  |  den   Gel   | 
g6=f2 f2e2e2d2 d8  | d2e2=f2d2 e2c2d4 d6f2  | 
w:  ser *  vi  *  re *  vân   |  SAZ *  *  *  *  *  *  gel   | 
=f2e4d2 d2c2c2B2 B8  | B2c2d2e2 d2c2B4 c6e2  | \
w:  gon *  *  ca  *  de *  hen   |  SAZ *  *  *  *  *  *  gel   | 
d2c4B2 B2A2A2G2 G8  | 
w:  ka *  *  şı  *  ke *  man    | 
B2c2d8c2d2 e6d2  | g4f2e2 d2c2B2c2 B2A2A2G2  | \
w:  Ke *  man  ke *  man   |  ke man  *  *  *  a *  man   | 
G8 z8 B6G2  | 
w:  gel   Ner  | 
c6d2 B2A2A2G2 G8  | z4B4 c4d4 e6d2  | \
w:  mey *  le *  ye *  mez   |  seng_ i  dil_ i   | 
d6^c2 d4g4 f2e2e2d2  | 
w:  yâr  *  *  e ğer  | 
d8 e8 f6e2  | d4e4 f4g4 f2e4d2  | =a6g2 f4g4 f2e2e2d2  | \
w:  çi   |   |  yâr  *  *  e ğer  | 
d8 z8 c6g2  | 
w:  çi   Gel   | 
g6=f2 f2e2e2d2 d8  | d2e2=f2d2 e2c2d4 d6f2  | \
w:  ser *  vi  *  re *  vân   |  SAZ *  *  *  *  *  *  gel   | 
=f2e4d2 d2c2c2B2 B8  | 
w:  gon *  *  ca  *  de *  hen   | 
B2c2d2e2 d2c2B4 c6e2  | d2c4B2 B2A2A2G2 G8  | \
w:  SAZ *  *  *  *  *  *  gel   |  ka *  *  şı  *  ke *  man    | 
B2c2d8c2d2 e6d2  | 
w:  Ke *  man  ke *  man   | 
g4f2e2 d2c2B2c2 B2A2A2G2  | G8 z8 f6g2  | \
w:  ke man  *  *  *  a *  man   |  gel   Hâ  | 
g6=a2 _b2a2g2f2 g8  | 
w:  kis *  ter_ *  o *  lur   | 
z4f4 g4=a4 _b6a2  | =a6g2 f4g4 f2e2e2d2  | \
w:  çerh_ i  ke mî  |  ne  *  şe re rim  | 
d8 e8 f6e2  | d4e4 f4g4 f2e4d2  | 
w:  den   |   | 
=a6g2 f4g4 f2e2e2d2  | d8 z8 c6g2  | \
w:  ah  *  şe re rim  |  den   Gel   | 
g6=f2 f2e2e2d2 d8  | d2e2=f2d2 e2c2d4 d6f2  | 
w:  ser *  vi  *  re *  vân   |  SAZ *  *  *  *  *  *  gel   | 
=f2e4d2 d2c2c2B2 B8  | B2c2d2e2 d2c2B4 c6e2  | \
w:  gon *  *  ca  *  de *  hen   |  SAZ *  *  *  *  *  *  gel   | 
d2c4B2 B2A2A2G2 G8  | 
w:  ka *  *  şı  *  ke *  man    | 
B2c2d8c2d2 e6d2  | g4f2e2 d2c2B2c2 B2A2A2G2  | \
w:  Ke *  man  ke *  man   |  ke man  *  *  *  a *  man   | 
G8 z8 z8  | 
w:  gel    | 
|


